src/Pure/16/symbolic/apps/org.gnome.Settings-location-access-symbolic.svg

<?xml version="1.0" encoding="UTF-8" standalone="no"?>
<svg
   width="16px"
   height="16px"
   version="1.1"
   viewBox="0 0 16 16"
   id="svg2"
   sodipodi:docname="org.gnome.Settings-location-access-symbolic.svg"
   inkscape:version="1.4.2 (ebf0e940d0, 2025-05-08)"
   xmlns:inkscape="http://www.inkscape.org/namespaces/inkscape"
   xmlns:sodipodi="http://sodipodi.sourceforge.net/DTD/sodipodi-0.dtd"
   xmlns="http://www.w3.org/2000/svg"
   xmlns:svg="http://www.w3.org/2000/svg">
  <defs
     id="defs2">
     <style
        id="current-color-scheme"
        type="text/css">
        .ColorScheme-Text { color:#363636; }
     </style>
  </defs>
  <sodipodi:namedview
     id="namedview2"
     pagecolor="#ffffff"
     bordercolor="#000000"
     borderopacity="0.25"
     inkscape:showpageshadow="2"
     inkscape:pageopacity="0.0"
     inkscape:pagecheckerboard="0"
     inkscape:deskcolor="#d1d1d1"
     inkscape:zoom="49.75"
     inkscape:cx="7.9899497"
     inkscape:cy="8"
     inkscape:window-width="1920"
     inkscape:window-height="1011"
     inkscape:window-x="0"
     inkscape:window-y="0"
     inkscape:window-maximized="1"
     inkscape:current-layer="svg2" />
  <path
     id="path1"
     style="fill:currentColor"
     class="ColorScheme-Text"
     d="M 8 0 C 4.1445 0 1 3.1484 1 7 C 1 7.875 1.1640612 8.714775 1.4570312 9.484375 C 1.5937512 9.874995 1.785165 10.253943 2.015625 10.632812 C 2.074219 10.726562 2.1289 10.8164 2.1875 10.90625 L 2.1914062 10.90625 C 2.9218762 12.01565 4.1874938 13.160188 5.3085938 14.117188 C 6.4296938 15.074217 7.4023438 15.800781 7.4023438 15.800781 C 7.5781237 15.933591 7.78857 16 8 16 C 8.21143 16 8.4218762 15.933595 8.5976562 15.800781 C 8.5976563 15.800781 9.5703562 15.074228 10.691406 14.117188 C 11.812506 13.160158 13.078094 12.01555 13.808594 10.90625 L 13.8125 10.90625 C 13.871094 10.816406 13.925775 10.726562 13.984375 10.632812 C 14.214845 10.253913 14.406259 9.874965 14.542969 9.484375 C 14.835939 8.714845 15 7.875 15 7 C 15 3.1484 11.8555 0 8 0 z M 8 1 C 11.311 1 14 3.6927 14 7 C 14 7.75 13.860415 8.4695063 13.609375 9.1289062 C 13.605975 9.1373252 13.602709 9.1457869 13.599609 9.1542969 C 13.493559 9.4572969 13.337949 9.7715056 13.136719 10.103516 L 13.134766 10.105469 L 13.134766 10.107422 L 13.134766 10.109375 L 13.132812 10.111328 L 13.130859 10.113281 C 13.073215 10.205646 13.023066 10.282963 12.978516 10.351562 C 12.976516 10.352863 12.974556 10.354169 12.972656 10.355469 C 12.360226 11.285579 11.147269 12.414622 10.042969 13.357422 C 8.9490688 14.291272 8 15 8 15 C 8 15 7.0510113 14.291302 5.9570312 13.357422 C 4.8527312 12.414712 3.6397437 11.285669 3.0273438 10.355469 C 3.0253938 10.354169 3.0234444 10.352863 3.0214844 10.351562 C 2.9769314 10.282965 2.9267846 10.205641 2.8691406 10.113281 L 2.8671875 10.111328 L 2.8652344 10.109375 L 2.8652344 10.107422 L 2.8652344 10.105469 L 2.8632812 10.103516 C 2.6620513 9.7715056 2.5064406 9.4572969 2.4003906 9.1542969 C 2.3972507 9.1457894 2.3939952 9.1373253 2.390625 9.1289062 C 2.139565 8.4694662 2 7.75 2 7 C 2 3.6927 4.689 1 8 1 z M 8 4 A 3 3 0 0 0 5 7 A 3 3 0 0 0 8 10 A 3 3 0 0 0 11 7 A 3 3 0 0 0 8 4 z M 8 5 A 2 2 0 0 1 10 7 A 2 2 0 0 1 8 9 A 2 2 0 0 1 6 7 A 2 2 0 0 1 8 5 z " />
</svg>

<svg width="16px" height="16px" version="1.1" viewBox="0 0 16 16" xmlns="http://www.w3.org/2000/svg">
 <path d="m8 0c-3.8555 0-7 3.1484-7 7 0 0.875 0.16406 1.7148 0.45703 2.4844 0.13672 0.39062 0.32813 0.76953 0.55859 1.1484 0.058594 0.09375 0.11328 0.18359 0.17188 0.27344h0.0039062c0.73047 1.1094 1.9961 2.2539 3.1172 3.2109 1.1211 0.95703 2.0938 1.6836 2.0938 1.6836 0.17578 0.13281 0.38623 0.19922 0.59766 0.19922s0.42188-0.066406 0.59766-0.19922c1e-7 0 0.97265-0.72656 2.0937-1.6836 1.1211-0.95703 2.3867-2.1016 3.1172-3.2109h0.003906c0.058594-0.089844 0.11328-0.17969 0.17188-0.27344 0.23047-0.3789 0.42188-0.75781 0.55859-1.1484 0.29297-0.76953 0.45703-1.6094 0.45703-2.4844 0-3.8516-3.1445-7-7-7zm0 1c3.311 0 6 2.6927 6 6 0 0.75-0.13958 1.4695-0.39062 2.1289-0.0034 0.008419-0.006666 0.016881-0.009766 0.025391-0.10605 0.303-0.26166 0.61721-0.46289 0.94922-0.0018 0.0029-0.002107 0.005012-0.003907 0.007812l-0.001953 0.001953c-0.057644 0.092365-0.10779 0.16968-0.15234 0.23828-2e-3 0.0013-0.00396 0.002607-0.00586 0.003907-0.61243 0.93011-1.8254 2.0592-2.9297 3.002-1.0939 0.93385-2.043 1.6426-2.043 1.6426s-0.94902-0.70872-2.043-1.6426c-1.1043-0.94271-2.3173-2.0718-2.9297-3.002-0.00195-0.0013-0.0038994-0.002607-0.0058594-0.003907-0.044553-0.068598-0.094696-0.14592-0.15234-0.23828l-0.0019531-0.001953c-0.00178-0.0028-0.0021063-0.004912-0.0039063-0.007812-0.20123-0.33201-0.35684-0.64622-0.46289-0.94922-0.0031399-0.0085075-0.0063954-0.016972-0.0097656-0.025391-0.25106-0.65944-0.39062-1.3789-0.39062-2.1289 0-3.3073 2.689-6 6-6z" fill="#363636"/>
 <path d="m8 4a3 3 0 0 0-3 3 3 3 0 0 0 3 3 3 3 0 0 0 3-3 3 3 0 0 0-3-3zm0 1a2 2 0 0 1 2 2 2 2 0 0 1-2 2 2 2 0 0 1-2-2 2 2 0 0 1 2-2z" fill="#363636" stroke-linecap="round" stroke-linejoin="round" stroke-width="2"/>
</svg>
